icons/editorconfig.svg

<svg width="16" height="16" viewBox="0 0 16 16" fill="none" xmlns="http://www.w3.org/2000/svg">
<path d="M14.35 7.38C14.053 7.75844 13.6814 8.07178 13.2582 8.30058C12.835 8.52937 12.3693 8.66873 11.89 8.71C11.97 8.1828 11.9394 7.64471 11.8 7.13C11.8038 7.09678 11.8038 7.06323 11.8 7.03C11.73 6.8 11.65 6.59 11.56 6.37C12.91 4.8 14.8 5.65 14.35 7.38Z" fill="#8A9AAA"/>
<path d="M8.33 3.65C7.54766 3.59509 6.76154 3.66256 6 3.85C6 1.89 9.83 0.750001 8.33 3.65Z" fill="#8A9AAA"/>
<path d="M5.62 7.35C5.62 8 2.62 7.27 2.83 6.52C3 6 5.5 6.5 5.62 7.35Z" fill="#8A9AAA"/>
<path d="M11.16 7.77C11.08 4.53 6.61 3 4.7 5.67C5.43 5.95 6.23 6.43 6.36 7.26C6.48 8.56 4.41 8.5 3.52 8.11C-0.19 16.64 11.22 12.65 11.16 7.77ZM10.35 9C10.35 9.08 10.28 9.18 10.23 9.26C10.188 9.34067 10.1301 9.41207 10.06 9.47C9.9212 9.59805 9.75792 9.6967 9.58 9.76C9.16556 9.88814 8.72594 9.91218 8.3 9.83C7.86023 9.75475 7.43916 9.59515 7.06 9.36C6.73685 9.17889 6.49399 8.88246 6.38 8.53C6.34993 8.4085 6.34993 8.2815 6.38 8.16C6.42445 8.0218 6.48135 7.88792 6.55 7.76C6.6287 7.61664 6.74665 7.4987 6.89 7.42C7.07646 7.30692 7.2921 7.25127 7.51 7.26C7.73 7.26 7.96 7.32 8.18 7.33C8.42144 7.35391 8.65953 7.40421 8.89 7.48C9.43542 7.57464 9.93639 7.84089 10.32 8.24C10.4028 8.34811 10.4501 8.47918 10.4555 8.61524C10.4609 8.75131 10.424 8.8857 10.35 9Z" fill="#8A9AAA"/>
<path d="M9.64 8.7C9.99 9.54 6.46 8.99 7.23 8.17C7.25 7.88 9.38 8.22 9.64 8.7Z" fill="#8A9AAA"/>
</svg>

<svg xmlns="http://www.w3.org/2000/svg" width="16" height="16" fill="none"><path fill="#909090" d="M14.35 7.38a3.51 3.51 0 0 1-2.46 1.33 3.84 3.84 0 0 0-.09-1.58.44.44 0 0 0 0-.1c-.07-.23-.15-.44-.24-.66 1.35-1.57 3.24-.72 2.79 1.01ZM8.33 3.65a7.54 7.54 0 0 0-2.33.2c0-1.96 3.83-3.1 2.33-.2ZM5.62 7.35c0 .65-3-.08-2.79-.83C3 6 5.5 6.5 5.62 7.35Z"/><path fill="#909090" d="M11.16 7.77C11.08 4.53 6.61 3 4.7 5.67c.73.28 1.53.76 1.66 1.59.12 1.3-1.95 1.24-2.84.85-3.71 8.53 7.7 4.54 7.64-.34ZM10.35 9c0 .08-.07.18-.12.26a.68.68 0 0 1-.17.21 1.4 1.4 0 0 1-.48.29 2.64 2.64 0 0 1-1.28.07 3.46 3.46 0 0 1-1.24-.47 1.47 1.47 0 0 1-.68-.83.77.77 0 0 1 0-.37 2.4 2.4 0 0 1 .17-.4.86.86 0 0 1 .34-.34 1.11 1.11 0 0 1 .62-.16c.22 0 .45.06.67.07.241.024.48.074.71.15a2.6 2.6 0 0 1 1.43.76.66.66 0 0 1 .03.76Z"/><path fill="#909090" d="M9.64 8.7c.35.84-3.18.29-2.41-.53.02-.29 2.15.05 2.41.53Z"/></svg>
